assets/images/rom_logo.svg

<?xml version="1.0" encoding="UTF-8"?>
<svg width="572px" height="187px" viewBox="0 0 572 187" version="1.1" xmlns="http://www.w3.org/2000/svg" xmlns:xlink="http://www.w3.org/1999/xlink">
    <title>rom_logo</title>
    <defs>
        <path d="M109.134821,42.6144 C109.134821,44.172 109.082821,45.7102 108.981421,47.2248 C110.242421,46.3798 111.548621,45.5656 112.897621,44.7868 C133.266021,33.027 155.731621,33.7488 163.034621,46.3978 C170.337421,59.0468 159.729821,78.8636 139.361221,90.6232 C138.012221,91.4022 136.654221,92.1262 135.291821,92.7956 C136.654221,93.4652 138.012221,94.1892 139.361221,94.968 C159.729821,106.7278 170.337421,126.5446 163.034621,139.1936 C155.731621,151.8424 133.266021,152.5644 112.897621,140.8046 C111.548621,140.0258 110.242421,139.2116 108.981421,138.3666 C109.082821,139.8812 109.134821,141.4194 109.134821,142.977 C109.134821,166.49654 97.2768212,185.5914 82.6710212,185.5914 C68.0654212,185.5914 56.2074212,166.49654 56.2074212,142.977 C56.2074212,141.4194 56.2594212,139.8812 56.3606212,138.3666 C55.0998212,139.2116 53.7936212,140.0258 52.4446212,140.8046 C32.0762212,152.5644 9.61042125,151.8424 2.30762125,139.1936 C-4.99523875,126.5446 5.61242125,106.7278 25.9808212,94.968 C27.3298212,94.1892 28.6880212,93.4652 30.0504212,92.7956 C28.6880212,92.1262 27.3298212,91.4022 25.9808212,90.6232 C5.61242125,78.8636 -4.99523875,59.0468 2.30762125,46.3978 C9.61042125,33.7488 32.0762212,33.027 52.4446212,44.7868 C53.7936212,45.5656 55.0998212,46.3798 56.3606212,47.2248 C56.2594212,45.7102 56.2074212,44.172 56.2074212,42.6144 C56.2074212,19.0948 68.0654212,1.13686838e-13 82.6710212,1.13686838e-13 C97.2768212,1.13686838e-13 109.134821,19.0948 109.134821,42.6144 Z M415.537621,106.081 C415.537621,131.8214 397.603621,150.2548 366.049621,150.2548 C335.327621,150.2548 316.561621,131.8214 316.561621,106.081 C316.561621,80.5068 335.327621,61.9072 366.049621,61.9072 C397.603621,61.9072 415.537621,80.5068 415.537621,106.081 Z M316.895621,74.3622 C316.895621,88.478 309.753621,99.4384 299.457621,106.4132 C301.117621,107.9078 302.447621,109.9006 303.941621,112.3916 L325.031621,148.262 L285.507621,148.262 L270.727621,122.6876 C268.071621,118.0378 266.409621,116.211 260.099621,116.211 L251.463621,116.211 L251.463621,148.262 L216.921621,148.262 L216.921621,35.3366 L264.417621,35.3366 C296.633621,35.3366 316.895621,47.1274 316.895621,74.3622 Z M570.311621,96.7812 L570.311621,148.262 L537.099621,148.262 L537.099621,104.7524 C537.099621,93.792 533.611621,88.9762 526.305621,88.9762 C518.333621,88.9762 512.355621,94.6224 512.355621,106.081 L512.355621,148.262 L479.141621,148.262 L479.141621,104.7524 C479.141621,93.792 475.653621,88.9762 468.347621,88.9762 C460.541621,88.9762 454.397621,94.6224 454.397621,106.081 L454.397621,148.262 L421.183621,148.262 L421.183621,63.9 L450.079621,63.9 L451.907621,75.5248 C459.213621,66.225 468.845621,61.9072 481.799621,61.9072 C494.419621,61.9072 503.055621,66.8892 507.871621,75.6908 C516.175621,65.8928 526.471621,61.9072 539.755621,61.9072 C560.513621,61.9072 570.311621,75.5248 570.311621,96.7812 Z M350.605621,106.081 C350.605621,117.8718 357.913621,124.1822 366.049621,124.1822 C374.187621,124.1822 381.495621,117.8718 381.495621,106.081 C381.495621,94.4564 374.187621,88.1458 366.049621,88.1458 C357.913621,88.1458 350.605621,94.4564 350.605621,106.081 Z M251.463621,60.5788 L251.463621,90.8028 L264.583621,90.8028 C275.045621,90.8028 281.189621,84.9906 281.189621,75.5248 C281.189621,66.059 275.211621,60.5788 264.251621,60.5788 Z" id="path-1"></path>
    </defs>
    <g id="rom_logo" stroke="none" fill="none" transform="translate(0.7964, 0.9286)" xlink:href="#path-1" fill-rule="evenodd" stroke-width="1">
        <g id="rom_icon" transform="translate(0, 0)">
            <path d="M30.0504212,92.7956 C28.6880212,92.1262 27.3298212,91.4022 25.9808212,90.6232 C5.61242125,78.8636 -4.99523875,59.0468 2.30762125,46.3978 C9.61042125,33.7488 32.0762212,33.027 52.4446212,44.7868 C53.7936212,45.5656 55.0998212,46.3798 56.3606212,47.2248 C56.2594212,45.7102 56.2074212,44.172 56.2074212,42.6144 C56.2074212,19.0948 68.0654212,0 82.6710212,0 C97.2768212,0 109.134821,19.0948 109.134821,42.6144 C109.134821,44.172 109.082821,45.7102 108.981421,47.2248 C110.242421,46.3798 111.548621,45.5656 112.897621,44.7868 C133.266021,33.027 155.731621,33.7488 163.034621,46.3978 C170.337421,59.0468 159.729821,78.8636 139.361221,90.6232 C138.012221,91.4022 136.654221,92.1262 135.291821,92.7956 C136.654221,93.4652 138.012221,94.1892 139.361221,94.968 C159.729821,106.7278 170.337421,126.5446 163.034621,139.1936 C155.731621,151.8424 133.266021,152.5644 112.897621,140.8046 C111.548621,140.0258 110.242421,139.2116 108.981421,138.3666 C109.082821,139.8812 109.134821,141.4194 109.134821,142.977 C109.134821,166.49654 97.2768212,185.5914 82.6710212,185.5914 C68.0654212,185.5914 56.2074212,166.49654 56.2074212,142.977 C56.2074212,141.4194 56.2594212,139.8812 56.3606212,138.3666 C55.0998212,139.2116 53.7936212,140.0258 52.4446212,140.8046 C32.0762212,152.5644 9.61042125,151.8424 2.30762125,139.1936 C-4.99523875,126.5446 5.61242125,106.7278 25.9808212,94.968 C27.3298212,94.1892 28.6880212,93.4652 30.0504212,92.7956 Z" id="Fill-1" fill="#0063FF"></path>
            <path d="M82.6710212,51.9982 C105.187821,51.9982 123.468621,70.279 123.468621,92.7956 C123.468621,115.3124 105.187821,133.5932 82.6710212,133.5932 C60.1544212,133.5932 41.8736212,115.3124 41.8736212,92.7956 C41.8736212,70.279 60.1544212,51.9982 82.6710212,51.9982 Z" id="Fill-3" fill="#99CCFF"></path>
            <path d="M68.4264212,76.303 C71.8374212,76.303 74.6070212,81.1456 74.6070212,87.1104 C74.6070212,93.0752 71.8374212,97.918 68.4264212,97.918 C65.0152212,97.918 62.2458212,93.0752 62.2458212,87.1104 C62.2458212,81.1456 65.0152212,76.303 68.4264212,76.303 Z" id="Fill-4" fill="#000000"></path>
            <path d="M96.9158212,76.303 C100.327021,76.303 103.096421,81.1456 103.096421,87.1104 C103.096421,93.0752 100.327021,97.918 96.9158212,97.918 C93.5046212,97.918 90.7352212,93.0752 90.7352212,87.1104 C90.7352212,81.1456 93.5046212,76.303 96.9158212,76.303 Z" id="Fill-5" fill="#000000"></path>
        </g>
        <g id="rom_text" transform="translate(216.9216, 35.3366)" fill="#0063FF">
            <path d="M0,112.9254 L34.542,112.9254 L34.542,80.8744 L43.178,80.8744 C49.488,80.8744 51.15,82.7012 53.806,87.351 L68.586,112.9254 L108.11,112.9254 L87.02,77.055 C85.526,74.564 84.196,72.5712 82.536,71.0766 C92.832,64.1018 99.974,53.1414 99.974,39.0256 C99.974,11.7908 79.712,0 47.496,0 L0,0 L0,112.9254 Z M34.542,55.4662 L34.542,25.2422 L47.33,25.2422 C58.29,25.2422 64.268,30.7224 64.268,40.1882 C64.268,49.654 58.124,55.4662 47.662,55.4662 L34.542,55.4662 Z" id="Fill-12"></path>
            <path d="M149.128,114.9182 C180.682,114.9182 198.616,96.4848 198.616,70.7444 C198.616,45.1702 180.682,26.5706 149.128,26.5706 C118.406,26.5706 99.64,45.1702 99.64,70.7444 C99.64,96.4848 118.406,114.9182 149.128,114.9182 Z M149.128,88.8456 C140.992,88.8456 133.684,82.5352 133.684,70.7444 C133.684,59.1198 140.992,52.8092 149.128,52.8092 C157.266,52.8092 164.574,59.1198 164.574,70.7444 C164.574,82.5352 157.266,88.8456 149.128,88.8456 Z" id="Fill-13"></path>
            <path d="M204.262,112.9254 L237.476,112.9254 L237.476,70.7444 C237.476,59.2858 243.62,53.6396 251.426,53.6396 C258.732,53.6396 262.22,58.4554 262.22,69.4158 L262.22,112.9254 L295.434,112.9254 L295.434,70.7444 C295.434,59.2858 301.412,53.6396 309.384,53.6396 C316.69,53.6396 320.178,58.4554 320.178,69.4158 L320.178,112.9254 L353.39,112.9254 L353.39,61.4446 C353.39,40.1882 343.592,26.5706 322.834,26.5706 C309.55,26.5706 299.254,30.5562 290.95,40.3542 C286.134,31.5526 277.498,26.5706 264.878,26.5706 C251.924,26.5706 242.292,30.8884 234.986,40.1882 L233.158,28.5634 L204.262,28.5634 L204.262,112.9254 Z" id="Fill-14"></path>
        </g>
    </g>
</svg>

<svg height="187" viewBox="0 0 572 187" width="572" xmlns="http://www.w3.org/2000/svg" xmlns:xlink="http://www.w3.org/1999/xlink"><defs><path id="a" d="m109.134821 42.6144c0 1.5576-.052 3.0958-.1534 4.6104 1.261-.845 2.5672-1.6592 3.9162-2.438 20.3684-11.7598 42.834-11.038 50.137 1.611 7.3028 12.649-3.3048 32.4658-23.6734 44.2254-1.349.779-2.707 1.503-4.0694 2.1724 1.3624.6696 2.7204 1.3936 4.0694 2.1724 20.3686 11.7598 30.9762 31.5766 23.6734 44.2256-7.303 12.6488-29.7686 13.3708-50.137 1.611-1.349-.7788-2.6552-1.593-3.9162-2.438.1014 1.5146.1534 3.0528.1534 4.6104 0 23.51954-11.8579998 42.6144-26.4637998 42.6144-14.6056 0-26.4636-19.09486-26.4636-42.6144 0-1.5576.052-3.0958.1532-4.6104-1.2608.845-2.567 1.6592-3.916 2.438-20.3684 11.7598-42.83419995 11.0378-50.13699995-1.611-7.30286-12.649 3.3048-32.4658 23.67319995-44.2256 1.349-.7788 2.7072-1.5028 4.0696-2.1724-1.3624-.6694-2.7206-1.3934-4.0696-2.1724-20.36839995-11.7596-30.97605995-31.5764-23.67319995-44.2254 7.3028-12.649 29.76859995-13.3708 50.13699995-1.611 1.349.7788 2.6552 1.593 3.916 2.438-.1012-1.5146-.1532-3.0528-.1532-4.6104 0-23.5196 11.858-42.6144 26.4636-42.6144 14.6058 0 26.4637998 19.0948 26.4637998 42.6144zm306.4028 63.4666c0 25.7404-17.934 44.1738-49.488 44.1738-30.722 0-49.488-18.4334-49.488-44.1738 0-25.5742 18.766-44.1738 49.488-44.1738 31.554 0 49.488 18.5996 49.488 44.1738zm-98.642-31.7188c0 14.1158-7.142 25.0762-17.438 32.051 1.66 1.4946 2.99 3.4874 4.484 5.9784l21.09 35.8704h-39.524l-14.78-25.5744c-2.656-4.6498-4.318-6.4766-10.628-6.4766h-8.636v32.051h-34.542v-112.9254h47.496c32.216 0 52.478 11.7908 52.478 39.0256zm253.416 22.419v51.4808h-33.212v-43.5096c0-10.9604-3.488-15.7762-10.794-15.7762-7.972 0-13.95 5.6462-13.95 17.1048v42.181h-33.214v-43.5096c0-10.9604-3.488-15.7762-10.794-15.7762-7.806 0-13.95 5.6462-13.95 17.1048v42.181h-33.214v-84.362h28.896l1.828 11.6248c7.306-9.2998 16.938-13.6176 29.892-13.6176 12.62 0 21.256 4.982 26.072 13.7836 8.304-9.798 18.6-13.7836 31.884-13.7836 20.758 0 30.556 13.6176 30.556 34.874zm-219.706 9.2998c0 11.7908 7.308 18.1012 15.444 18.1012 8.138 0 15.446-6.3104 15.446-18.1012 0-11.6246-7.308-17.9352-15.446-17.9352-8.136 0-15.444 6.3106-15.444 17.9352zm-99.142-45.5022v30.224h13.12c10.462 0 16.606-5.8122 16.606-15.278s-5.978-14.946-16.938-14.946z"/></defs><g fill="none" fill-rule="evenodd" xlink:href="#a"><g transform="translate(.7964 .9286)"><path d="m30.0504212 92.7956c-1.3624-.6694-2.7206-1.3934-4.0696-2.1724-20.36839995-11.7596-30.97605995-31.5764-23.67319995-44.2254 7.3028-12.649 29.76859995-13.3708 50.13699995-1.611 1.349.7788 2.6552 1.593 3.916 2.438-.1012-1.5146-.1532-3.0528-.1532-4.6104 0-23.5196 11.858-42.6144 26.4636-42.6144 14.6058 0 26.4637998 19.0948 26.4637998 42.6144 0 1.5576-.052 3.0958-.1534 4.6104 1.261-.845 2.5672-1.6592 3.9162-2.438 20.3684-11.7598 42.834-11.038 50.137 1.611 7.3028 12.649-3.3048 32.4658-23.6734 44.2254-1.349.779-2.707 1.503-4.0694 2.1724 1.3624.6696 2.7204 1.3936 4.0694 2.1724 20.3686 11.7598 30.9762 31.5766 23.6734 44.2256-7.303 12.6488-29.7686 13.3708-50.137 1.611-1.349-.7788-2.6552-1.593-3.9162-2.438.1014 1.5146.1534 3.0528.1534 4.6104 0 23.51954-11.8579998 42.6144-26.4637998 42.6144-14.6056 0-26.4636-19.09486-26.4636-42.6144 0-1.5576.052-3.0958.1532-4.6104-1.2608.845-2.567 1.6592-3.916 2.438-20.3684 11.7598-42.83419995 11.0378-50.13699995-1.611-7.30286-12.649 3.3048-32.4658 23.67319995-44.2256 1.349-.7788 2.7072-1.5028 4.0696-2.1724z" fill="#0063ff"/><path d="m82.6710212 51.9982c22.5167998 0 40.7975998 18.2808 40.7975998 40.7974 0 22.5168-18.2808 40.7976-40.7975998 40.7976-22.5166 0-40.7974-18.2808-40.7974-40.7976 0-22.5166 18.2808-40.7974 40.7974-40.7974z" fill="#9cf"/><g fill="#000"><path d="m68.4264212 76.303c3.411 0 6.1806 4.8426 6.1806 10.8074s-2.7696 10.8076-6.1806 10.8076c-3.4112 0-6.1806-4.8428-6.1806-10.8076s2.7694-10.8074 6.1806-10.8074z"/><path d="m96.9158212 76.303c3.4111998 0 6.1805998 4.8426 6.1805998 10.8074s-2.7694 10.8076-6.1805998 10.8076c-3.4112 0-6.1806-4.8428-6.1806-10.8076s2.7694-10.8074 6.1806-10.8074z"/></g></g><g fill="#0063ff" transform="translate(217.718 36.2652)"><path d="m0 112.9254h34.542v-32.051h8.636c6.31 0 7.972 1.8268 10.628 6.4766l14.78 25.5744h39.524l-21.09-35.8704c-1.494-2.491-2.824-4.4838-4.484-5.9784 10.296-6.9748 17.438-17.9352 17.438-32.051 0-27.2348-20.262-39.0256-52.478-39.0256h-47.496zm34.542-57.4592v-30.224h12.788c10.96 0 16.938 5.4802 16.938 14.946s-6.144 15.278-16.606 15.278z"/><path d="m149.128 114.9182c31.554 0 49.488-18.4334 49.488-44.1738 0-25.5742-17.934-44.1738-49.488-44.1738-30.722 0-49.488 18.5996-49.488 44.1738 0 25.7404 18.766 44.1738 49.488 44.1738zm0-26.0726c-8.136 0-15.444-6.3104-15.444-18.1012 0-11.6246 7.308-17.9352 15.444-17.9352 8.138 0 15.446 6.3106 15.446 17.9352 0 11.7908-7.308 18.1012-15.446 18.1012z"/><path d="m204.262 112.9254h33.214v-42.181c0-11.4586 6.144-17.1048 13.95-17.1048 7.306 0 10.794 4.8158 10.794 15.7762v43.5096h33.214v-42.181c0-11.4586 5.978-17.1048 13.95-17.1048 7.306 0 10.794 4.8158 10.794 15.7762v43.5096h33.212v-51.4808c0-21.2564-9.798-34.874-30.556-34.874-13.284 0-23.58 3.9856-31.884 13.7836-4.816-8.8016-13.452-13.7836-26.072-13.7836-12.954 0-22.586 4.3178-29.892 13.6176l-1.828-11.6248h-28.896z"/></g></g></svg>
